!!!COM:	Bach, Johann Sebastian
!!!OMV:	Herzliebster Jesu, was hast du verbrochen
!!!OTL:	Herzliebster Jesu, was hast du verbrochen
**kern	**fb	**kern	**kern	**kern
*part4	*part4	*part3	*part2	*part1
*staff4	*	*staff3	*staff2	*staff1
*I"Voice	*	*I"Voice	*I"Voice	*I"Voice
*I'V	*	*I'V	*I'V	*I'V
*clefF4	*	*clefGv2	*clefG2	*clefG2
*k[b-e-]	*	*k[b-e-]	*k[b-e-]	*k[b-e-]
*M4/4	*	*M4/4	*M4/4	*M4/4
4G	.	4B-	4d	4g
=2	=2	=2	=2	=2
8CL	7 5	4B-	8e-L	4g
8DJ	.	.	8dJ	.
4E-	6 4	8AL	4c	4g
.	3	8GJ	.	.
4D;	#	4A;	4d;	4f#X;
4C	#4|	4F#X	4A	4d
=3	=3	=3	=3	=3
4BB-	6	4G	8dL	4g
.	.	.	8enJ	.
4AA	#6\	4c	4f#X	4a
4GG	.	4d	4g	4b-
4G	.	4d	4g	4b-
=4	=4	=4	=4	=4
4F#X	7 5	4e-	4a	4cc
4G	.	4d	4g	4b-
4D;	#	4d;	4f#X;	4a;
4D	.	4d	4f#	4a
=5	=5	=5	=5	=5
4G	.	4d	4g	4b-
4c	6	4e-	4a	4cc
4B-	.	8fnL	4b-	8ddL
.	.	8e-J	.	8ccJ
4A-X	2	8dL	4fn	4b-
.	.	8cJ	.	.
=6	=6	=6	=6	=6
4G	6	4B-	8gL	4ee-
.	.	.	8aJ	.
4G-X	6	8B-L	4b-	4ee-
.	.	8cJ	.	.
4F	6 4	8dL	4b-	4dd
.	.	8B-J	.	.
4En	-r7 5	4g	4b-	8dd-XL
.	.	.	.	8ccJ
=7	=7	=7	=7	=7
!!linebreak:original
2F	4	4.f	4b-	2cc
.	3	.	4a	.
.	.	8e-	.	.
4BB-;	.	4d;	4f;	4b-;
4GGn	.	4d	8gL	4b-
.	.	.	8fJ	.
=8	=8	=8	=8	=8
4C	6	4c	8e-L	4a
.	.	.	8dJ	.
4C#X	7 5	4B-	4en	4g
4D	.	4A	4d	4f
8DL	.	4F	4A	8dL
8CnJ	.	.	.	8e-J
=9	=9	=9	=9	=9
8BB-L	.	4B-	8dL	4f
8CJ	.	.	8e-J	.
8DL	6	4B-	4f	4f
8BB-J	.	.	.	.
4E-	.	4B-	8fL	4g
.	.	.	8e-J	.
4F	6	4A	8e-L	4f
.	.	.	8dJ	.
=10	=10	=10	=10	=10
4G	6 5	4B-	8d	2e-
.	.	.	16cLL	.
.	.	.	16B-JJ	.
4A	6 5	4F	4c	.
4B-;	.	4F;	4B-;	4d;
4B-	.	4f	4b-	4dd
=11	=11	=11	=11	=11
4F#X	7 5	4e-	4a	4cc
4G	.	4d	4g	8b-L
.	.	.	.	8aJ
4C#X	6 5	4en	4g	2a
4D	8 #	8dL	4f#X	.
.	7	8cJ	.	.
=12	=12	=12	=12	=12
2.GG;	n	2.Bn;	2.d;	2.g;
=||	=||	=||	=||	=||
*-	*-	*-	*-	*-
!!!system-decoration: s1,s2,s3,s4
